X:257
T:Royne des flours (Chanson 14)
S:from bay14.MID
C:Manuscript de Bayeux (fin XVe)
R:Chanson
M:4/4
L:1/8
Q:1/4=92
K:C 
V:1
c4 d2 dd | e3f/2g/2 a4 | g3f ed/2c/2 d2 | c2zc g3/2a/2 gf | 
e3d cB/2A/2 B2 | A8 | a4 a2 aa | b3a/2g/2 g2zg | 
c'3a a2 f2 | e8 | a4 a2 aa | b3a/2g/2 g2zg | 
c'3b a2 f2 | e4 c4 | d2 dd2<e2f/2g/2 | a4 g3f | 
ed/2c/2 d2 c2zc | g3/2a/2 gf e2 de | cB/2A/2 B2 A4 |]
V:2
c4 d4 | e4 A4 | G4 A4 | c4 G4 | 
A4 c2 B2 | A8 | A4 A4 | B4 G4 | 
c4 A4 | A8 | A4 A4 | B4 G4 | 
c4 A4 | A4 c4 | d4 e4 | A4 G4 | 
A4 c4 | G4 A4 | c2 B2 A4 |]





